Yaru++/mimetypes/scalable/text-x-bibtex.svg

<svg height="256" viewBox="0 0 67.73 67.73" width="256" xmlns="http://www.w3.org/2000/svg" xmlns:xlink="http://www.w3.org/1999/xlink"><radialGradient id="a" cx="179.99261" cy="103.2822" gradientTransform="matrix(1.3687341 -.00000021 .0000002 1.3528551 -121.02851 -70.900578)" gradientUnits="userSpaceOnUse" r="35.068905"><stop offset="0"/><stop offset="1" stop-opacity="0"/></radialGradient><filter id="b" color-interpolation-filters="sRGB" height="1.144" width="1.144" x="-.072" y="-.072"><feGaussianBlur stdDeviation="1.98"/></filter><linearGradient id="c" gradientTransform="matrix(0 -.11988342 .11987999 0 .362762 62.749399)" gradientUnits="userSpaceOnUse" x1="529.65515" x2="-35.310345" y1="401.58368" y2="119.09284"><stop offset="0" stop-color="#f2f2f2"/><stop offset="1" stop-color="#f9f9f9"/></linearGradient><linearGradient id="d" gradientUnits="userSpaceOnUse" x1="88" x2="488" y1="88" y2="488"><stop offset="0" stop-opacity=".588235"/><stop offset=".88" stop-opacity="0"/><stop offset="1"/></linearGradient><filter id="e" color-interpolation-filters="sRGB" height="1.087725" width="1.105998" x="-.052999" y="-.043863"><feGaussianBlur stdDeviation="8.4801079"/></filter><filter id="f" color-interpolation-filters="sRGB" height="1.021931" width="1.0265" x="-.01325" y="-.010966"><feGaussianBlur stdDeviation="2.120027"/></filter><path d="m20.70399 3.4856496c-9.338464 0-10.343272.959178-10.297504 10.3165304v19.315345 19.315344c-.04577 9.357355.95904 10.316531 10.297504 10.316531h25.969365c9.338465 0 10.297506-.959068 10.297506-10.316531v-19.315344-12.699376l-16.9325-16.9324994z" fill="none" opacity=".2" stroke="#000" stroke-width="1.058281"/><path d="m189.84323 74c-70.59344 0-78.18921 7.250835-77.84323 77.98706v146.01294 146.01294c-.34598 70.73623 7.24979 77.98706 77.84323 77.98706h196.31354c70.59344 0 76.00668-7.27384 77.84323-77.98706v-146.01294-98l-128-126z" filter="url(#f)" opacity=".1" transform="matrix(.13228516 0 0 .13228516 -4.409451 -6.038882)"/><path d="m189.84323 74c-70.59344 0-78.18921 7.250835-77.84323 77.98706v146.01294 146.01294c-.34598 70.73623 7.24979 77.98706 77.84323 77.98706h196.31354c70.59344 0 77.84323-7.24999 77.84323-77.98706v-146.01294-96l-128-128z" fill="url(#d)" filter="url(#e)" opacity=".3" transform="matrix(.13228516 0 0 .13228516 -4.409451 -6.038882)"/><path d="m20.70399 3.4856496c-9.338464 0-10.343272.959178-10.297504 10.3165304v19.315345 19.315344c-.04577 9.357355.95904 10.316531 10.297504 10.316531h25.969365c9.338465 0 10.297506-.959068 10.297506-10.316531v-19.315344-12.699376l-16.9325-16.9324994z" fill="url(#c)"/><g fill="#fff"><path d="m20.704059 3.4856496c-9.338466 0-10.343341.9593397-10.297573 10.3166914v.529141c-.04577-9.3573521.959107-10.3166918 10.297573-10.3166918h19.334302v-.5291406z" opacity=".6"/><path d="m33.688673 3.4856496v59.2637504h12.984614c9.338464 0 10.054627-.962123 10.297574-10.316435v-19.31544-12.699376l-16.9325-16.9324994z" opacity=".1"/><path d="m41.096642 62.7494 15.874219-15.874219v5.948567c-.01384 8.994282-1.006077 9.925652-10.099734 9.925652z" opacity=".4"/></g><path d="m185.33354 74.825228-66-65.9999998.003 24.9985698v1 .53711c0 35.29429 3.62603 39.63197 38.99414 39.45899z" fill="url(#a)" filter="url(#b)" opacity=".2" transform="matrix(.26457031 0 0 .26457031 7.937109 1.150756)"/><path d="m56.970861 20.94729v-.529141l-16.9325-16.9324994h-.529141v6.6140184.26457.142103c0 9.118097 1.587422 10.440949 10.316692 10.439679z" opacity=".15"/><path d="m56.970085 20.416739-16.930949-16.9309508v6.0846012.2645704.1421033c0 9.3378199.95934 10.4854419 10.316692 10.4396759z" fill="#faf8f6"/><g transform="translate(-2.030791 -228.55843)"><path d="m35.806999 252.33164v1.05833h12.7v-1.05833zm0 3.175v1.05833h12.7v-1.05833zm0 3.175v1.05833h12.7v-1.05833zm0 3.175v1.05833h12.7v-1.05833zm0 3.175v1.05833h12.7v-1.05833z" fill="#b3b3b3"/><path d="m22.489583 267.36665v1.05833h12.7v-1.05833zm0 3.175v1.05833h12.7v-1.05833zm0 3.175v1.05833h12.7v-1.05833zm0 3.175v1.05833h12.7v-1.05833zm0 3.175v1.05833h12.7v-1.05833z" fill="#b3b3b3"/><g fill-opacity=".321285"><path d="m-8.1308443 262.0643c2.712041-1.85882 3.9918805-3.71763 3.9918805-5.8507 0-1.82834-1.0055882-3.01676-2.4987343-3.01676-1.1274777 0-1.9807041.79228-1.9807041 1.82834 0 1.09701.822754 1.79787 2.0721212 1.79787.1218895 0 .4266132 0 .4875579-.0305h.091417c.1523619 0 .2133066.0914.2133066.27425 0 1.27984-1.0360606 2.71204-3.0777094 4.14424z" transform="translate(48.392057 19.040767)"/><path d="m-8.1308443 262.0643c2.712041-1.85882 3.9918805-3.71763 3.9918805-5.8507 0-1.82834-1.0055882-3.01676-2.4987343-3.01676-1.1274777 0-1.9807041.79228-1.9807041 1.82834 0 1.09701.822754 1.79787 2.0721212 1.79787.1218895 0 .4266132 0 .4875579-.0305h.091417c.1523619 0 .2133066.0914.2133066.27425 0 1.27984-1.0360606 2.71204-3.0777094 4.14424z" transform="translate(53.683727 19.040767)"/><path d="m-8.1308443 262.0643c2.712041-1.85882 3.9918805-3.71763 3.9918805-5.8507 0-1.82834-1.0055882-3.01676-2.4987343-3.01676-1.1274777 0-1.9807041.79228-1.9807041 1.82834 0 1.09701.822754 1.79787 2.0721212 1.79787.1218895 0 .4266132 0 .4875579-.0305h.091417c.1523619 0 .2133066.0914.2133066.27425 0 1.27984-1.0360606 2.71204-3.0777094 4.14424z" transform="matrix(-1 0 0 -1 23.045446 514.45816)"/><path d="m-8.1308443 262.0643c2.712041-1.85882 3.9918805-3.71763 3.9918805-5.8507 0-1.82834-1.0055882-3.01676-2.4987343-3.01676-1.1274777 0-1.9807041.79228-1.9807041 1.82834 0 1.09701.822754 1.79787 2.0721212 1.79787.1218895 0 .4266132 0 .4875579-.0305h.091417c.1523619 0 .2133066.0914.2133066.27425 0 1.27984-1.0360606 2.71204-3.0777094 4.14424z" transform="matrix(-1 0 0 -1 17.753775 514.45816)"/></g></g><path d="m10.406486 33.117525v19.31544c-.04577 9.357354.959108 10.316435 10.297573 10.316435h25.969228c9.338464 0 10.054627-.962123 10.297574-10.316435v-19.31544z" fill="#fff" opacity=".2"/></svg>

<?xml version="1.0" encoding="UTF-8" standalone="no"?>
<svg
   xmlns:dc="http://purl.org/dc/elements/1.1/"
   xmlns:cc="http://creativecommons.org/ns#"
   xmlns:rdf="http://www.w3.org/1999/02/22-rdf-syntax-ns#"
   xmlns:svg="http://www.w3.org/2000/svg"
   xmlns="http://www.w3.org/2000/svg"
   xmlns:xlink="http://www.w3.org/1999/xlink"
   xmlns:sodipodi="http://sodipodi.sourceforge.net/DTD/sodipodi-0.dtd"
   xmlns:inkscape="http://www.inkscape.org/namespaces/inkscape"
   height="256"
   viewBox="0 0 67.73 67.73"
   width="256"
   version="1.1"
   id="svg43"
   sodipodi:docname="2.svg"
   inkscape:version="0.92.5 (2060ec1f9f, 2020-04-08)">
  <metadata
     id="metadata49">
    <rdf:RDF>
      <cc:Work
         rdf:about="">
        <dc:format>image/svg+xml</dc:format>
        <dc:type
           rdf:resource="http://purl.org/dc/dcmitype/StillImage" />
        <dc:title></dc:title>
      </cc:Work>
    </rdf:RDF>
  </metadata>
  <defs
     id="defs47">
    <filter
       style="color-interpolation-filters:sRGB"
       id="c-3"
       height="1.022"
       width="1.026"
       x="-0.0099999998"
       y="-0.0099999998">
      <feGaussianBlur
         stdDeviation="2.12"
         id="feGaussianBlur14-6" />
    </filter>
    <linearGradient
       id="linearGradient947"
       gradientUnits="userSpaceOnUse"
       x1="88"
       x2="488"
       y1="88"
       y2="488">
      <stop
         offset="0"
         stop-opacity=".588235"
         id="stop7-7" />
      <stop
         offset=".88"
         stop-opacity="0"
         id="stop9-5" />
      <stop
         offset="1"
         id="stop11-3" />
    </linearGradient>
    <linearGradient
       id="linearGradient951"
       gradientTransform="matrix(0,-0.11988932,0.11988589,0,0.36278,292.5483)"
       gradientUnits="userSpaceOnUse"
       x1="529.65503"
       x2="-35.310001"
       y1="401.58401"
       y2="119.093">
      <stop
         offset="0"
         stop-color="#f2f2f2"
         id="stop2-5" />
      <stop
         offset="1"
         stop-color="#f9f9f9"
         id="stop4-6" />
    </linearGradient>
    <radialGradient
       inkscape:collect="always"
       xlink:href="#linearGradient1750"
       id="radialGradient1752"
       cx="179.99261"
       cy="103.2822"
       fx="179.99261"
       fy="103.2822"
       r="35.068905"
       gradientTransform="matrix(1.3687341,-2.0954866e-7,2.0316901e-7,1.3528551,-121.02851,-70.900578)"
       gradientUnits="userSpaceOnUse" />
    <linearGradient
       inkscape:collect="always"
       id="linearGradient1750">
      <stop
         style="stop-color:#000000;stop-opacity:1;"
         offset="0"
         id="stop1746" />
      <stop
         style="stop-color:#000000;stop-opacity:0;"
         offset="1"
         id="stop1748" />
    </linearGradient>
    <filter
       inkscape:collect="always"
       style="color-interpolation-filters:sRGB"
       id="filter2553"
       x="-0.071999997"
       width="1.1440001"
       y="-0.071999997"
       height="1.1440001">
      <feGaussianBlur
         inkscape:collect="always"
         stdDeviation="1.98"
         id="feGaussianBlur2555" />
    </filter>
    <linearGradient
       gradientUnits="userSpaceOnUse"
       y2="119.09284"
       x2="-35.310345"
       y1="401.58368"
       x1="529.65515"
       id="linearGradient4226"
       xlink:href="#linearGradient4338"
       inkscape:collect="always"
       gradientTransform="matrix(0,-0.11988342,0.11987999,0,0.3627617,62.749399)" />
    <linearGradient
       inkscape:collect="always"
       id="linearGradient4338">
      <stop
         style="stop-color:#f2f2f2;stop-opacity:1"
         offset="0"
         id="stop4340" />
      <stop
         style="stop-color:#f9f9f9;stop-opacity:1"
         offset="1"
         id="stop4342" />
    </linearGradient>
    <linearGradient
       inkscape:collect="always"
       xlink:href="#linearGradient4360"
       id="linearGradient4358"
       x1="88"
       y1="88"
       x2="488"
       y2="488"
       gradientUnits="userSpaceOnUse" />
    <linearGradient
       id="linearGradient4360"
       inkscape:collect="always">
      <stop
         id="stop4362"
         offset="0"
         style="stop-color:#000000;stop-opacity:0.58823532" />
      <stop
         style="stop-color:#000000;stop-opacity:0"
         offset="0.88"
         id="stop4364" />
      <stop
         id="stop4366"
         offset="1"
         style="stop-color:#000000;stop-opacity:1" />
    </linearGradient>
    <filter
       inkscape:collect="always"
       style="color-interpolation-filters:sRGB"
       id="filter4380"
       x="-0.052999184"
       width="1.1059984"
       y="-0.043862626"
       height="1.0877253">
      <feGaussianBlur
         inkscape:collect="always"
         stdDeviation="8.4801079"
         id="feGaussianBlur4382" />
    </filter>
    <filter
       inkscape:collect="always"
       style="color-interpolation-filters:sRGB"
       id="filter4346"
       x="-0.013249796"
       width="1.0264996"
       y="-0.010965657"
       height="1.0219313">
      <feGaussianBlur
         inkscape:collect="always"
         stdDeviation="2.120027"
         id="feGaussianBlur4348" />
    </filter>
  </defs>
  <sodipodi:namedview
     pagecolor="#ffffff"
     bordercolor="#666666"
     borderopacity="1"
     objecttolerance="10"
     gridtolerance="10"
     guidetolerance="10"
     inkscape:pageopacity="0"
     inkscape:pageshadow="2"
     inkscape:window-width="1169"
     inkscape:window-height="739"
     id="namedview45"
     showgrid="false"
     inkscape:zoom="0.921875"
     inkscape:cx="-88.949153"
     inkscape:cy="123.91485"
     inkscape:window-x="0"
     inkscape:window-y="28"
     inkscape:window-maximized="0"
     inkscape:current-layer="svg43" />
  <linearGradient
     id="a"
     gradientTransform="matrix(0,-0.11988932,0.11988589,0,0.36278,292.5483)"
     gradientUnits="userSpaceOnUse"
     x1="529.655"
     x2="-35.31"
     y1="401.584"
     y2="119.093">
    <stop
       offset="0"
       stop-color="#f2f2f2"
       id="stop2" />
    <stop
       offset="1"
       stop-color="#f9f9f9"
       id="stop4" />
  </linearGradient>
  <linearGradient
     id="b"
     gradientUnits="userSpaceOnUse"
     x1="88"
     x2="488"
     y1="88"
     y2="488">
    <stop
       offset="0"
       stop-opacity=".588235"
       id="stop7" />
    <stop
       offset=".88"
       stop-opacity="0"
       id="stop9" />
    <stop
       offset="1"
       id="stop11" />
  </linearGradient>
  <filter
     id="c"
     color-interpolation-filters="sRGB"
     height="1.022"
     width="1.026"
     x="-.01"
     y="-.01">
    <feGaussianBlur
       stdDeviation="2.12"
       id="feGaussianBlur14" />
  </filter>
  <path
     sodipodi:nodetypes="scccssscccs"
     inkscape:connector-curvature="0"
     id="path1163"
     d="m 20.70399,3.4856496 c -9.338464,0 -10.343272,0.959178 -10.297504,10.3165304 V 33.117525 52.432869 C 10.360716,61.790224 11.365526,62.7494 20.70399,62.7494 h 25.969365 c 9.338465,0 10.297506,-0.959068 10.297506,-10.316531 V 33.117525 20.418149 L 40.038361,3.4856496 Z"
     style="color:#000000;display:inline;overflow:visible;visibility:visible;opacity:0.2;fill:none;fill-opacity:1;fill-rule:nonzero;stroke:#000000;stroke-width:1.0582813;stroke-miterlimit:4;stroke-dasharray:none;stroke-opacity:1;marker:none;enable-background:accumulate" />
  <path
     style="color:#000000;display:inline;overflow:visible;visibility:visible;opacity:0.1;fill:#000000;fill-opacity:1;fill-rule:nonzero;stroke:none;stroke-width:2;marker:none;filter:url(#filter4346);enable-background:accumulate"
     d="M 189.84323,74 C 119.24979,74 111.65402,81.250835 112,151.98706 V 298 444.01294 C 111.65402,514.74917 119.24979,522 189.84323,522 H 386.15677 C 456.75021,522 462.16345,514.72616 464,444.01294 V 298 200 L 336,74 Z"
     id="rect4158-9"
     inkscape:connector-curvature="0"
     sodipodi:nodetypes="scccssscccs"
     transform="matrix(0.13228516,0,0,0.13228516,-4.4094514,-6.0388816)" />
  <path
     sodipodi:nodetypes="scccssscccs"
     inkscape:connector-curvature="0"
     id="path4350"
     d="M 189.84323,74 C 119.24979,74 111.65402,81.250835 112,151.98706 V 298 444.01294 C 111.65402,514.74917 119.24979,522 189.84323,522 H 386.15677 C 456.75021,522 464,514.75001 464,444.01294 V 298 202 L 336,74 Z"
     style="color:#000000;display:inline;overflow:visible;visibility:visible;opacity:0.3;fill:url(#linearGradient4358);fill-opacity:1;fill-rule:nonzero;stroke:none;stroke-width:2;marker:none;filter:url(#filter4380);enable-background:accumulate"
     transform="matrix(0.13228516,0,0,0.13228516,-4.4094514,-6.0388816)" />
  <path
     style="color:#000000;display:inline;overflow:visible;visibility:visible;fill:url(#linearGradient4226);fill-opacity:1;fill-rule:nonzero;stroke:none;stroke-width:0.26457033;marker:none;enable-background:accumulate"
     d="m 20.70399,3.4856496 c -9.338464,0 -10.343272,0.959178 -10.297504,10.3165304 V 33.117525 52.432869 C 10.360716,61.790224 11.365526,62.7494 20.70399,62.7494 h 25.969365 c 9.338465,0 10.297506,-0.959068 10.297506,-10.316531 V 33.117525 20.418149 L 40.038361,3.4856496 Z"
     id="rect4158"
     inkscape:connector-curvature="0"
     sodipodi:nodetypes="scccssscccs" />
  <path
     style="color:#000000;display:inline;overflow:visible;visibility:visible;opacity:0.6;fill:#ffffff;fill-opacity:1;fill-rule:nonzero;stroke:none;stroke-width:0.26457033;marker:none;enable-background:accumulate"
     d="m 20.704059,3.4856496 c -9.338466,0 -10.343341,0.9593397 -10.297573,10.3166914 v 0.529141 C 10.360716,4.9741299 11.365593,4.0147902 20.704059,4.0147902 H 40.038361 V 3.4856496 Z"
     id="path931"
     inkscape:connector-curvature="0"
     sodipodi:nodetypes="sccsccs" />
  <path
     style="color:#000000;display:inline;overflow:visible;visibility:visible;opacity:0.1;fill:#ffffff;fill-opacity:1;fill-rule:nonzero;stroke:none;stroke-width:0.26457033;marker:none;enable-background:accumulate"
     d="M 33.688673,3.4856496 V 62.7494 h 12.984614 c 9.338464,0 10.054627,-0.962123 10.297574,-10.316435 V 33.117525 20.418149 L 40.038361,3.4856496 Z"
     id="path4231"
     inkscape:connector-curvature="0"
     sodipodi:nodetypes="ccsscccc" />
  <path
     style="color:#000000;display:inline;overflow:visible;visibility:visible;opacity:0.4;fill:#ffffff;fill-opacity:1;fill-rule:nonzero;stroke:none;stroke-width:2.11656237;stroke-linecap:butt;stroke-linejoin:miter;stroke-miterlimit:4;stroke-dasharray:none;stroke-dashoffset:0;stroke-opacity:1;marker:none;enable-background:accumulate"
     d="M 41.096642,62.7494 56.970861,46.875181 v 5.948567 C 56.957021,61.81803 55.964784,62.7494 46.871127,62.7494 Z"
     id="path4254"
     inkscape:connector-curvature="0"
     sodipodi:nodetypes="cccsc" />
  <path
     inkscape:connector-curvature="0"
     style="color:#000000;display:inline;overflow:visible;visibility:visible;opacity:0.2;fill:url(#radialGradient1752);fill-opacity:1;fill-rule:nonzero;stroke:none;stroke-width:1;marker:none;filter:url(#filter2553);enable-background:accumulate"
     d="m 185.33354,74.825228 -66,-65.9999998 0.003,24.9985698 v 1 0.53711 c 0,35.29429 3.62603,39.63197 38.99414,39.45899 z"
     id="rect4158-0-3-6"
     sodipodi:nodetypes="ccccscc"
     transform="matrix(0.26457031,0,0,0.26457031,7.9371086,1.1507562)" />
  <path
     inkscape:connector-curvature="0"
     style="color:#000000;display:inline;overflow:visible;visibility:visible;opacity:0.15;fill:#000000;fill-opacity:1;fill-rule:nonzero;stroke:none;stroke-width:0.26457033;marker:none;enable-background:accumulate"
     d="M 56.970861,20.94729 V 20.418149 L 40.038361,3.4856496 H 39.50922 v 6.6140184 0.26457 0.142103 c 0,9.118097 1.587422,10.440949 10.316692,10.439679 z"
     id="rect4158-0-3-2"
     sodipodi:nodetypes="ccccccscc" />
  <path
     inkscape:connector-curvature="0"
     style="color:#000000;display:inline;overflow:visible;visibility:visible;fill:#faf8f6;fill-opacity:1;fill-rule:nonzero;stroke:none;stroke-width:0.26457033;marker:none;enable-background:accumulate"
     d="M 56.970085,20.416739 40.039136,3.4857882 v 6.0846012 0.2645704 0.1421033 c 0,9.3378199 0.95934,10.4854419 10.316692,10.4396759 z"
     id="rect4158-0-3" />
  <g
     transform="translate(-2.0307913,-228.55843)"
     id="g58">
    <path
       style="fill:#b3b3b3"
       inkscape:connector-curvature="0"
       d="m 35.806999,252.33164 v 1.05833 h 12.7 v -1.05833 z m 0,3.175 v 1.05833 h 12.7 v -1.05833 z m 0,3.175 v 1.05833 h 12.7 v -1.05833 z m 0,3.175 v 1.05833 h 12.7 v -1.05833 z m 0,3.175 v 1.05833 h 12.7 v -1.05833 z"
       id="path44" />
    <path
       style="fill:#b3b3b3"
       inkscape:connector-curvature="0"
       d="m 22.489583,267.36665 v 1.05833 h 12.7 v -1.05833 z m 0,3.175 v 1.05833 h 12.7 v -1.05833 z m 0,3.175 v 1.05833 h 12.7 v -1.05833 z m 0,3.175 v 1.05833 h 12.7 v -1.05833 z m 0,3.175 v 1.05833 h 12.7 v -1.05833 z"
       id="path46" />
    <g
       style="fill-opacity:0.32128505"
       id="g56">
      <path
         inkscape:connector-curvature="0"
         d="m -8.1308443,262.0643 c 2.712041,-1.85882 3.9918805,-3.71763 3.9918805,-5.8507 0,-1.82834 -1.0055882,-3.01676 -2.4987343,-3.01676 -1.1274777,0 -1.9807041,0.79228 -1.9807041,1.82834 0,1.09701 0.822754,1.79787 2.0721212,1.79787 0.1218895,0 0.4266132,0 0.4875579,-0.0305 h 0.091417 c 0.1523619,0 0.2133066,0.0914 0.2133066,0.27425 0,1.27984 -1.0360606,2.71204 -3.0777094,4.14424 z"
         transform="translate(48.392057,19.040767)"
         id="path48" />
      <path
         inkscape:connector-curvature="0"
         d="m -8.1308443,262.0643 c 2.712041,-1.85882 3.9918805,-3.71763 3.9918805,-5.8507 0,-1.82834 -1.0055882,-3.01676 -2.4987343,-3.01676 -1.1274777,0 -1.9807041,0.79228 -1.9807041,1.82834 0,1.09701 0.822754,1.79787 2.0721212,1.79787 0.1218895,0 0.4266132,0 0.4875579,-0.0305 h 0.091417 c 0.1523619,0 0.2133066,0.0914 0.2133066,0.27425 0,1.27984 -1.0360606,2.71204 -3.0777094,4.14424 z"
         transform="translate(53.683727,19.040767)"
         id="path50" />
      <path
         inkscape:connector-curvature="0"
         d="m -8.1308443,262.0643 c 2.712041,-1.85882 3.9918805,-3.71763 3.9918805,-5.8507 0,-1.82834 -1.0055882,-3.01676 -2.4987343,-3.01676 -1.1274777,0 -1.9807041,0.79228 -1.9807041,1.82834 0,1.09701 0.822754,1.79787 2.0721212,1.79787 0.1218895,0 0.4266132,0 0.4875579,-0.0305 h 0.091417 c 0.1523619,0 0.2133066,0.0914 0.2133066,0.27425 0,1.27984 -1.0360606,2.71204 -3.0777094,4.14424 z"
         transform="rotate(180,11.522723,257.22908)"
         id="path52" />
      <path
         inkscape:connector-curvature="0"
         d="m -8.1308443,262.0643 c 2.712041,-1.85882 3.9918805,-3.71763 3.9918805,-5.8507 0,-1.82834 -1.0055882,-3.01676 -2.4987343,-3.01676 -1.1274777,0 -1.9807041,0.79228 -1.9807041,1.82834 0,1.09701 0.822754,1.79787 2.0721212,1.79787 0.1218895,0 0.4266132,0 0.4875579,-0.0305 h 0.091417 c 0.1523619,0 0.2133066,0.0914 0.2133066,0.27425 0,1.27984 -1.0360606,2.71204 -3.0777094,4.14424 z"
         transform="rotate(180,8.8768875,257.22908)"
         id="path54" />
    </g>
  </g>
  <path
     inkscape:connector-curvature="0"
     style="color:#000000;display:inline;overflow:visible;visibility:visible;opacity:0.2;fill:#ffffff;fill-opacity:1;fill-rule:nonzero;stroke:none;stroke-width:0.26457033;marker:none;enable-background:accumulate"
     d="m 10.406486,33.117525 v 19.31544 C 10.360716,61.790319 11.365594,62.7494 20.704059,62.7494 h 25.969228 c 9.338464,0 10.054627,-0.962123 10.297574,-10.316435 v -19.31544 z"
     id="path4255"
     sodipodi:nodetypes="ccssscc" />
</svg>
